!!!!SEGMENT: pl-wn--sd-xvi-qu-273--104_gomolka-mikolaj--duszo-spiewaj-panu-piesn-o-nieogarniony.krn
!!!cenid: 15xx:309
!!!COM: Gomółka, Mikołaj
!!!COM-rismid: pe30013343
!!!CDT: ~1535->1591/04/30
!!!CNT: Polish
!!!GTL: Melodiae na psalterz polski
!!!OTL: CIV. Duszo, śpiewaj Panu pieśń: O nieogarniony
!!!ONB: PSALM CIIII. Benedic anima mea Domino: Domine D eus meus magnificatus es vehementer.
!!!PDT: 1580
!!!AGN: Sacred
!!!SMS-siglum: PL-Wn
!!!SMS-shelfmark: SD XVI.Qu.273
!!!SMS-shelfwork: 104 G
!!!NIFC-rismid:
!!!ONB-nifc: Melodiae na psalterz polski
**kern	**text	**kern	**text	**kern	**text	**kern	**text
*part4	*part4	*part3	*part3	*part2	*part2	*part1	*part1
*staff4	*staff4	*staff3	*staff3	*staff2	*staff2	*staff1	*staff1
*clefF4	*	*clefC3	*	*clefC2	*	*clefC1	*
*k[b-]	*	*k[b-]	*	*k[b-]	*	*k[b-]	*
*D:	*	*D:	*	*D:	*	*D:	*
*M2/1	*	*M2/1	*	*M2/1	*	*M2/1	*
*met(C|)	*	*met(C|)	*	*met(C|)	*	*met(C|)	*
*I"BASSUS.	*	*I"TENOR.	*	*I"ALTUS.	*	*I"CANTUS.	*
=1-	=1	=1-	=1	=1-	=1	=1-	=1
1GG/	DU-	2.B-/	DU-	1d/	DU-	1g\	DU-
.	.	4A/	.	.	.	.	.
2GG/	-ſʒo	4B-/	-ſʒo	2d/	-ſʒo	2g/	-ſʒo
.	.	4c/	.	.	.	.	.
2G\	śpié-	2d\	śpié-	2g\	.	2b-\	śpié-
=2-	=2	=2-	=2	=2-	=2	=2-	=2
2A\	.	2c/	.	2e/	śpié-	2a\	-way
2E\	.	1f\	-way	1d/	.	1a\	pá-
1B-\	way	.	.	.	.	.	.
.	.	4e\	pá-	2d/	-way	2g/	-nu
.	.	4d\	.	.	.	.	.
=3-	=3	=3-	=3	=3-	=3	=3-	=3
2A\	pá-	2c#X/	-nu	2e/	pá-	1a\	pieśń:
!	!	!LO:SIC:s=2c#:v	!	!	!	!	!
2AA/	-nu	2cny/	pieśń:	2e/	-nu	.	.
2C/	pieśń:	2G/	.	2c/	pieśń:	1.g\	.
2.GG/	.	2.B-/	.	2d/	.	.	.
=4-	=4	=4-	=4	=4-	=4	=4-	=4
.	.	.	.	2g\	.	.	.
4AA/	o	4c/	o	.	.	.	.
4BB-/	nie-	2d\	nie-	4f\	o	2d/	o
4C/	-o-	.	.	4e\	nie-	.	.
2D/	-gár-	2A/	-o-	2d/	-o-	2f/	nie-
2BB-/	-nio-	4B-/	-gár-	2d/	-gár-	2f/	-o-
.	.	4A/	.	.	.	.	.
=5-	=5	=5-	=5	=5-	=5	=5-	=5
1C/	-ny	4G/	-nio-	2.c/	-nio-	1e/	-gár_nio-
.	.	4F/	.	.	.	.	.
.	.	2G/	-ny	.	.	.	.
.	.	.	.	4B-/	-ny	.	.
2D/	Nie-	2F#X/	Nie-	2A/	Nie-	2d/	-ny
2GG/	.	2G/	.	2d/	.	2g/	Nie-
=6-	=6	=6-	=6	=6-	=6	=6-	=6
2GG/	-bá,	2G/	-bá,	2d/	-bá,	2g/	-bá,
2D/	y	2A/	y	2d/	y	2f#/	y
!!LO:PB:g=original
2GG/	ʒ́ie-	2B-/	ʒ́ie-	2d/	ʒ́ie-	2g/	ʒ́ie-
1D\	-mie	1Fny/	-mie	2d/	-mie	2a\	-mie
=7-	=7	=7-	=7	=7-	=7	=7-	=7
.	.	.	.	2f\	ſpraw-	1b-\	ſpraw-
!	!	!	!	!LO:TX:t=P:bemol po nucie:problem	!	!	!
2E-X\	ſpraw-	2G/	ſpraw-	4e-X/	-co,	.	.
.	.	.	.	4d/	.	.	.
2F\	-co,	2A/	-co,	4c/	wiel-	2a\	-co,
.	.	.	.	4A/	.	.	.
1G\	wiel-	2.B-/	wiel-	2d/	-ceś	1g\	wiel-
=8-	=8	=8-	=8	=8-	=8	=8-	=8
.	.	.	.	2B-/	u-	.	.
.	.	4c/	.	.	.	.	.
2D/	-ceś	2d\	-ceś	2A/	-wiel-	2f/	-ceś
2.G\	u-	2.B-/	u-	2.G/	.	2e-/	u-
.	.	.	.	.	.	1d/	-wiel-
4F\	-wiel-	4A/	-wiel-	4A/	-bio-	.	.
=9-	=9	=9-	=9	=9-	=9	=9-	=9
4E-X\	-bio-	4G/	.	2B-/	.	.	.
4D\	-ny.	4F/	.	.	.	.	.
!LO:SIC:s=2E-:v	!	!	!	!	!	!	!
2Eny\	.	2G/	-bio-	2G/	-ny.	2c/	-bio-
*000/left	*	*000/left	*	*000/left	*	*	*
000D/	.	000F#/	-ny.	000A/	.	000d/	-ny.
==	==	==	==	==	==	==	==
*-	*-	*-	*-	*-	*-	*-	*-
!!!RDF**kern: l = terminal long
!!!system-decoration: s1,s2,s3,s4
!!!ENC: Marta Lawrence
!!!END: 2020-02-18
!!!URL-scan: https://polona.pl/item/melodiae-na-psalterz-polski,Nzk3MTM4ODQ/243 Scan on Polona
!!!IIIF: https://polona.pl/iiif/item/Nzk3MTM4ODQ/manifest.json
